X:30
T:Mouth of the Tobique/Turnpike
T:Mouth of the Tobique
C:Arr. Christine Martin
M:C
K:G
|:(3DEF|GFGA Bded|BdBG D2 (BG)|ABAF DFAF|GABc d2 (3DEF|
GFGA Bded|BdBG D2 (BG)|ABAF DFAF|GBAF G2:|:
(ef)|gfga gdBg|fdAd f2 (gf)|ecAG FDEF|GABc d2 (ef)|
gfga gdBg|fdAd f2 (gf)|ecAG FDEF|GBAF G2:|:
(3DEF|G2 (BG) GcGG|BGGc GGBG|FGAB cAFA|GABc d2 (3DEF|
G2 (BG) GcGG|BGGc GGBG|FGAB cAFA|GBAF G2:|
T:The Turnpike
M:4/4
L:1/8
K:A
ABcA BcAF|ECEF ABce|agae faec|dBcA BdcB|
ABcA BcAF|ECEF ABce|agae faec|1BAGB A4:|2BAGB A2GF|
|:E2GE BEGE|A2cA eAcA|B2^dB fBdB|e2ge bege|
agae faec|defg a2ga|bgaf gece|1dBGB A2GF:|2dBGB A4|]

